build/img/coffee/feature-1.svg

<svg width="80" height="80" viewBox="0 0 80 80" fill="none" xmlns="http://www.w3.org/2000/svg">
<path fill-rule="evenodd" clip-rule="evenodd" d="M70.6665 22.6667H63.7549C63.9126 22.2396 63.9956 21.7887 64 21.3333C64 13.2332 57.4336 6.66665 49.3335 6.66665H30.6665C28.0278 6.66665 24.7495 2.20797 23.8096 0.646692C23.5444 0.197657 23.0391 -0.0525264 22.5215 0.00930217C22.0044 0.0661869 21.5674 0.418665 21.4028 0.912012C20.5933 3.33334 14.9814 5.75869 11.7334 6.69332C2.03613 8.63333 0 14.2747 0 18.6667C0.0078125 20.1135 0.488281 21.5182 1.36816 22.6667H1.3335C0.597168 22.6667 0 23.2636 0 24V45.3333C0 55.6734 8.44531 80 20 80H44C54.2466 80 62.0425 60.876 63.6772 49.3333H70.6665C75.8184 49.3267 79.9932 45.1519 80 40V32C79.9932 26.848 75.8184 22.6733 70.6665 22.6667ZM61.333 45.3333C61.333 50.5334 59.1387 58.7373 56 65.2907C52.3267 72.944 47.9546 77.3333 44 77.3333H20C16.0454 77.3333 11.6733 72.944 8 65.2907C4.86133 58.7373 2.6665 50.5334 2.6665 45.3333V25.3333H61.333V45.3333ZM6.6665 22.6667H60C60.7363 22.6667 61.333 22.0697 61.333 21.3333C61.333 14.7058 55.9604 9.33334 49.333 9.33334H30.6665C27.3545 9.33334 24.3223 5.95999 22.7051 3.77334C19.7559 7.08669 13.228 9.03469 12.3652 9.28268C5.89453 10.5813 2.6665 13.7334 2.6665 18.6667C2.66797 19.7307 3.09082 20.7508 3.84229 21.504C4.59375 22.2485 5.60889 22.6663 6.6665 22.6667ZM64 30.6667H70.6665C71.4028 30.6667 72 31.2636 72 32V40C72 40.7364 71.4028 41.3333 70.6665 41.3333H64V30.6667ZM70.6665 46.6667C74.3467 46.6624 77.3291 43.68 77.3335 40V32C77.3291 28.32 74.3467 25.3377 70.6665 25.3333H64V28H70.6665C72.876 28 74.6665 29.7909 74.6665 32V40C74.6665 42.2091 72.876 44 70.6665 44H64V46.6667H70.6665Z" fill="#F3084E"/>
</svg>

<svg width="80" height="80" viewBox="0 0 80 80" fill="none" xmlns="http://www.w3.org/2000/svg"><path fill-rule="evenodd" clip-rule="evenodd" d="M70.666 22.667h-6.911A3.96 3.96 0 0 0 64 21.333c0-8.1-6.566-14.666-14.666-14.666H30.666c-2.638 0-5.916-4.459-6.856-6.02-.266-.45-.77-.7-1.288-.638-.518.057-.955.41-1.12.903-.809 2.421-6.42 4.847-9.669 5.781C2.036 8.633 0 14.275 0 18.667a6.636 6.636 0 0 0 1.368 4h-.035C.597 22.667 0 23.264 0 24v21.333C0 55.673 8.445 80 20 80h24c10.247 0 18.042-19.124 19.677-30.667h6.99A9.346 9.346 0 0 0 80 40v-8a9.346 9.346 0 0 0-9.334-9.333zm-9.333 22.666c0 5.2-2.194 13.404-5.333 19.958-3.673 7.653-8.045 12.042-12 12.042H20c-3.955 0-8.327-4.389-12-12.042-3.139-6.554-5.333-14.758-5.333-19.958v-20h58.666v20zM6.667 22.667H60c.736 0 1.333-.597 1.333-1.334 0-6.627-5.373-12-12-12H30.667c-3.313 0-6.345-3.373-7.962-5.56-2.95 3.314-9.477 5.262-10.34 5.51-6.47 1.298-9.698 4.45-9.698 9.384a4.025 4.025 0 0 0 1.175 2.837 4.015 4.015 0 0 0 2.825 1.163zm57.333 8h6.666c.737 0 1.334.597 1.334 1.333v8c0 .736-.597 1.333-1.334 1.333H64V30.667zm6.666 16A6.675 6.675 0 0 0 77.335 40v-8a6.675 6.675 0 0 0-6.668-6.667H64V28h6.666a4 4 0 0 1 4 4v8a4 4 0 0 1-4 4H64v2.667h6.666z" fill="#F3084E"/></svg>
